images/font-size.svg

<?xml version="1.0" encoding="UTF-8" standalone="no"?>
<svg width="14px" height="14px" viewBox="0 0 14 14" version="1.1" xmlns="http://www.w3.org/2000/svg" xmlns:xlink="http://www.w3.org/1999/xlink">
    <!-- Generator: Sketch 40.3 (33839) - http://www.bohemiancoding.com/sketch -->
    <title>font-size</title>
    <desc>Created with Sketch.</desc>
    <defs></defs>
    <g id="Page-1" stroke="none" stroke-width="1" fill="none" fill-rule="evenodd">
        <g id="font-size" fill="#000000">
            <g id="Page-1">
                <g>
                    <g id="font-size">
                        <g id="Capa_1">
                            <g id="Group">
                                <path d="M11.9209571,3.119025 C12.0024663,3.22240625 12.1256319,3.28251875 12.2557976,3.28251875 L13.2258343,3.28251875 C13.3400674,3.28251875 13.4496196,3.2361 13.530227,3.15363125 C13.6108343,3.0711625 13.6558835,2.9593375 13.6552822,2.84291875 L13.6567852,0.43386875 C13.6540369,0.1941625 13.462546,0.00126875 13.2273374,0.00126875 L0.429447852,0.00126875 C0.192263804,0.00126875 0,0.19718125 0,0.43876875 L0,2.84501875 C0,3.08660625 0.192263804,3.28251875 0.429447852,3.28251875 L1.39982822,3.28251875 C1.53033742,3.28251875 1.65371779,3.2221 1.73518405,3.118325 L2.46515951,2.1888125 L5.53966258,2.1888125 L5.53966258,13.5478438 C5.53966258,13.7893875 5.73192638,13.9853438 5.96911043,13.9853438 L7.68690184,13.9853438 C7.924,13.9853438 8.1163497,13.7893875 8.1163497,13.5478438 L8.1163497,2.18885625 L11.1874601,2.18885625 L11.9209571,3.119025 L11.9209571,3.119025 L11.9209571,3.119025 Z" id="Shape"></path>
                                <path d="M13.8976626,11.26335 C13.7848466,11.1142062 13.590908,11.0553625 13.4163804,11.1171375 L12.8685767,11.3112562 L12.8686626,9.617125 C12.8686626,9.5011 12.8234417,9.3898 12.7429202,9.307725 C12.6623987,9.22569375 12.5531043,9.17958125 12.4392148,9.17958125 L12.0101963,9.17958125 C11.7730981,9.17958125 11.5807485,9.37553755 11.5807485,9.61708123 L11.5807485,11.3112562 L11.0328589,11.1171375 C10.8584172,11.0551875 10.6645644,11.1142062 10.5517485,11.26335 C10.4388466,11.41245 10.4324049,11.6183812 10.5356442,11.7747 L11.8683497,13.7921438 C11.9481841,13.9129812 12.0818283,13.9854312 12.2246626,13.9854312 C12.3675828,13.9854312 12.5011841,13.9129812 12.5809755,13.7921438 L13.9137669,11.7747 C14.0169631,11.6183812 14.0104785,11.41245 13.8976626,11.26335 L13.8976626,11.26335 L13.8976626,11.26335 Z" id="Shape"></path>
                            </g>
                        </g>
                    </g>
                </g>
            </g>
        </g>
    </g>
</svg>

<svg width="14" height="14" xmlns="http://www.w3.org/2000/svg"><g fill="#000" fill-rule="evenodd"><path d="M11.921 3.119a.427.427 0 0 0 .335.164h.97a.426.426 0 0 0 .304-.13.441.441 0 0 0 .125-.31l.002-2.41a.434.434 0 0 0-.43-.432H.43A.434.434 0 0 0 0 .44v2.406c0 .242.192.438.43.438h.97c.13 0 .254-.06.335-.165l.73-.93H5.54v11.36c0 .241.192.437.43.437h1.717c.237 0 .43-.196.43-.437V2.188h3.07l.734.931zM13.898 11.263a.425.425 0 0 0-.482-.146l-.547.194V9.617a.442.442 0 0 0-.126-.31.426.426 0 0 0-.304-.127h-.429a.434.434 0 0 0-.43.437v1.694l-.547-.194a.425.425 0 0 0-.481.146.444.444 0 0 0-.016.512l1.332 2.017a.427.427 0 0 0 .713 0l1.333-2.017a.444.444 0 0 0-.016-.512z"/></g></svg>
